X:91
T:Silver Spire
Z:robin.beech@mcgill.ca
R:reel
M:4/4
L:1/8
K:D
| D2FE DFAc|dcde fdAF|GABG FADF|(3GFE (3FED CEA,C|
D2FE DFAc|dcde fdAF|GABG FADF|EA,CE D4::
A,B,CD EFGE|(3FED EF GABc|d3A Bcde|fdgf e2(3ABc|
d2fd ceAc|dcdB AFDF|GABG FADF|EA,CE D4:|
